Sources/FrostedUI/Resources/Icons.xcassets/bell24.imageset/bell-24.svg

<svg width="24" height="24" viewBox="0 0 24 24" fill="none" xmlns="http://www.w3.org/2000/svg" data-fui-icon="true">
  <g clip-path="url(#clip0_4063_727)">
    <path
      d="M9.50317 20C9.50317 20.8787 9.82551 21.483 10.2668 21.875C10.722 22.2792 11.3504 22.4971 12.0032 22.4971C12.656 22.4971 13.2843 22.2792 13.7395 21.875C14.1809 21.483 14.5032 20.8787 14.5032 20L9.50317 20ZM12.0002 1.58789C8.98756 1.58805 7.26813 3.06415 6.2395 4.88477C5.18408 6.75282 4.86489 8.98423 4.77661 10.3467C4.7165 11.2741 4.37757 12.2128 3.69263 12.9297L3.34497 13.2939C2.1839 14.5091 2.21159 16.4315 3.40747 17.6123C3.98353 18.1808 4.76123 18.4999 5.57056 18.5L18.428 18.5C19.2374 18.5 20.0149 18.1808 20.5911 17.6123C21.7874 16.4316 21.8157 14.5093 20.6545 13.2939L20.3069 12.9297C19.6221 12.2128 19.282 11.274 19.2219 10.3467C19.1338 8.9842 18.8151 6.7527 17.76 4.88477C16.7316 3.06437 15.0128 1.58795 12.0002 1.58789ZM16.0032 20C16.0032 21.2861 15.5129 22.3056 14.7356 22.9961C13.9721 23.6742 12.9753 23.9971 12.0032 23.9971C11.0311 23.9971 10.0343 23.6742 9.27075 22.9961C8.49344 22.3057 8.00317 21.2861 8.00317 20H5.57056C4.36688 19.9999 3.2115 19.5251 2.35474 18.6797C0.575744 16.9237 0.533202 14.0652 2.26001 12.2578L2.60767 11.8936C3.00783 11.4748 3.23897 10.89 3.28052 10.25C3.37406 8.80625 3.71236 6.30671 4.93286 4.14648C6.1802 1.93879 8.35678 0.0880525 12.0002 0.0878906C15.6436 0.0879507 17.8195 1.93892 19.0667 4.14648C20.2868 6.30643 20.6256 8.80515 20.719 10.249C20.7604 10.889 20.9908 11.4747 21.3909 11.8936L21.7385 12.2578C23.4656 14.0653 23.424 16.9236 21.6448 18.6797C20.7879 19.5253 19.6318 20 18.428 20H16.0032Z"
      fill="currentColor"
    />
  </g>
  <defs>
    <clipPath id="clip0_4063_727"><path fill="currentColor" d="M0 0H24V24H0z" /></clipPath>
  </defs>
</svg>

<svg xmlns="http://www.w3.org/2000/svg" width="24" height="24" fill="none" data-fui-icon="true" viewBox="0 0 24 24"><g clip-path="url(#a)"><path fill="currentColor" d="M9.503 20c0 .879.323 1.483.764 1.875.455.404 1.083.622 1.736.622s1.281-.218 1.736-.622c.442-.392.764-.996.764-1.875zM12 1.588c-3.012 0-4.732 1.476-5.76 3.297-1.056 1.868-1.375 4.1-1.463 5.462-.06.927-.4 1.866-1.084 2.583l-.348.364A3.08 3.08 0 0 0 5.571 18.5h12.857a3.08 3.08 0 0 0 2.226-5.206l-.347-.364c-.685-.717-1.025-1.656-1.085-2.583-.088-1.363-.407-3.594-1.462-5.462-1.028-1.82-2.747-3.297-5.76-3.297M16.003 20c0 1.286-.49 2.306-1.267 2.996-.764.678-1.76 1.001-2.733 1.001-.972 0-1.969-.323-2.732-1-.778-.691-1.268-1.71-1.268-2.997H5.571a4.58 4.58 0 0 1-3.311-7.742l.348-.364c.4-.42.631-1.004.673-1.644.093-1.444.431-3.943 1.652-6.104C6.18 1.94 8.357.088 12 .088s5.82 1.85 7.067 4.058c1.22 2.16 1.559 4.66 1.652 6.103.041.64.272 1.226.672 1.645l.348.364A4.579 4.579 0 0 1 18.428 20z"/></g><defs><clipPath id="a"><path fill="currentColor" d="M0 0h24v24H0z"/></clipPath></defs></svg>
